src/img/github.svg

<?xml version="1.0" encoding="UTF-8"?>
<svg version="1.1" xmlns="http://www.w3.org/2000/svg">
<g fill="none" fill-rule="evenodd">
<g fill="#000" fill-rule="nonzero">
<path d="m15 0.2c-8.3 0-15 6.7-15 15 0 6.9 4.7 12.9 11.4 14.6 0.1 0 0.3 0 0.4-0.1s0.2-0.2 0.2-0.4v-3.6c0-0.1-0.1-0.3-0.1-0.4-0.1-0.1-0.2-0.1-0.4-0.1h-1c-1.6 0-2.6-1.5-3.5-2.8-0.2-0.2-0.3-0.5-0.5-0.7 0.6 0.3 1 0.7 1.5 1.2 0.7 0.7 1.4 1.4 2.6 1.4 0.5 0 1.5-0.5 1.5-2v-0.5c0-0.2-0.1-0.4-0.4-0.5-3.4-1-5.6-3.7-5.6-6.8 0-1.6 0.7-3.2 1.9-4.4v-0.6c-0.5-1 0-2.4 0.7-3.2 0.7 0.3 1.4 1.1 2 1.7 0.1 0.2 0.4 0.2 0.6 0.1l0.3-0.1c1.1-0.4 2.4-0.9 3.6-0.9s2.5 0.5 3.6 0.9l0.3 0.1c0.2 0.1 0.4 0 0.6-0.1 0.6-0.7 1.3-1.4 2-1.7 0.7 0.9 1.2 2.2 0.7 3.2-0.4 0.2-0.4 0.4-0.3 0.6 1.2 1.3 1.9 2.7 1.9 4.2 0 3.3-2.5 6.2-6.1 7-0.2 0-0.3 0.1-0.3 0.3s-0.1 0.3 0 0.4c0.3 0.5 0.4 1.5 0.4 2.8v4.6c0 0.2 0.1 0.3 0.2 0.4s0.2 0.1 0.3 0.1h0.1c6.7-1.8 11.4-7.8 11.4-14.7 0-8.3-6.7-15-15-15z"/>
</g>
</g>
</svg>

<?xml version="1.0" encoding="UTF-8" standalone="no"?>
<svg width="30px" height="30px" viewBox="0 0 30 30" version="1.1" xmlns="http://www.w3.org/2000/svg" xmlns:xlink="http://www.w3.org/1999/xlink">
    <!-- Generator: Sketch 47 (45396) - http://www.bohemiancoding.com/sketch -->
    <title>github</title>
    <desc>Created with Sketch.</desc>
    <defs></defs>
    <g id="Page-1" stroke="none" stroke-width="1" fill="none" fill-rule="evenodd">
        <g id="github" fill-rule="nonzero" fill="#000000">
            <path d="M15,0.2 C6.7,0.2 0,6.9 0,15.2 C0,22.1 4.7,28.1 11.4,29.8 C11.5,29.8 11.7,29.8 11.8,29.7 C11.9,29.6 12,29.5 12,29.3 L12,25.7 C12,25.6 11.9,25.4 11.9,25.3 C11.8,25.2 11.7,25.2 11.5,25.2 L10.5,25.2 C8.9,25.2 7.9,23.7 7,22.4 C6.8,22.2 6.7,21.9 6.5,21.7 C7.1,22 7.5,22.4 8,22.9 C8.7,23.6 9.4,24.3 10.6,24.3 C10.6,24.3 10.6,24.3 10.6,24.3 C11.1,24.3 12.1,23.8 12.1,22.3 L12.1,21.8 C12.1,21.6 12,21.4 11.7,21.3 C8.3,20.3 6.1,17.6 6.1,14.5 C6.1,12.9 6.8,11.3 8,10.1 C8,9.9 8,9.7 8,9.5 C7.5,8.5 8,7.1 8.7,6.3 C9.4,6.6 10.1,7.4 10.7,8 C10.8,8.2 11.1,8.2 11.3,8.1 L11.6,8 C12.7,7.6 14,7.1 15.2,7.1 C16.4,7.1 17.7,7.6 18.8,8 L19.1,8.1 C19.3,8.2 19.5,8.1 19.7,8 C20.3,7.3 21,6.6 21.7,6.3 C22.4,7.2 22.9,8.5 22.4,9.5 C22,9.7 22,9.9 22.1,10.1 C23.3,11.4 24,12.8 24,14.3 C24,17.6 21.5,20.5 17.9,21.3 C17.7,21.3 17.6,21.4 17.6,21.6 C17.6,21.8 17.5,21.9 17.6,22 C17.9,22.5 18,23.5 18,24.8 C18,26.5 18,29.4 18,29.4 C18,29.6 18.1,29.7 18.2,29.8 C18.3,29.9 18.4,29.9 18.5,29.9 C18.5,29.9 18.6,29.9 18.6,29.9 C25.3,28.1 30,22.1 30,15.2 C30,6.9 23.3,0.2 15,0.2 Z" id="Shape"></path>
        </g>
    </g>
</svg>
